packages/icons/svg/Fill/more-horizontal.svg

<svg fill="none" height="24" viewBox="0 0 24 24" width="24" xmlns="http://www.w3.org/2000/svg"><path clip-rule="evenodd" d="m3 12c0-1.104.896-2 2-2s2 .896 2 2-.896 2-2 2-2-.896-2-2zm9-2c-1.104 0-2.00002.896-2.00002 2s.89602 2 2.00002 2 2-.896 2-2-.896-2-2-2zm7 0c-1.104 0-2 .896-2 2s.896 2 2 2 2-.896 2-2-.896-2-2-2z" fill="#6b7280" fill-rule="evenodd"/></svg>

<svg width="24" height="24" viewBox="0 0 24 24" fill="none" xmlns="http://www.w3.org/2000/svg">
<g id="Icon/Fill/more-horizontal">
<path id="Mask" fill-rule="evenodd" clip-rule="evenodd" d="M3 12C3 10.896 3.896 10 5 10C6.104 10 7 10.896 7 12C7 13.104 6.104 14 5 14C3.896 14 3 13.104 3 12ZM12 10C10.896 10 10 10.896 10 12C10 13.104 10.896 14 12 14C13.104 14 14 13.104 14 12C14 10.896 13.104 10 12 10ZM19 10C17.896 10 17 10.896 17 12C17 13.104 17.896 14 19 14C20.104 14 21 13.104 21 12C21 10.896 20.104 10 19 10Z" fill="#000000"/>
</g>
</svg>
